X:960
T:Eddie Kelly's
R:reel
C:Eddie Kelly, Castlerea, Co. Roscommon
Z:id:hn-reel-960
M:C|
L:1/8
K:Ddor
c | AGEC DEDC | A,DDC A,DDC | DEFE F2FG | Acfe d3c |
AGEC A,3B, | C3D EGcB | dfed cGAc | _BGFE FDD :|
|: e | fddc d3e | fd~d2 fdeg | fddc defd | eg~g2 ecce |
fddc defd | ea~a2 gedg | edcB c2cA | _BAGE FDD :|

